src/assets/images/mdi_web.svg

<svg width="24" height="25" viewBox="0 0 24 25" fill="none" xmlns="http://www.w3.org/2000/svg">
<g id="mdi:web">
<path id="Vector" d="M16.36 14.9414C16.44 14.2814 16.5 13.6214 16.5 12.9414C16.5 12.2614 16.44 11.6014 16.36 10.9414H19.74C19.9 11.5814 20 12.2514 20 12.9414C20 13.6314 19.9 14.3014 19.74 14.9414M14.59 20.5014C15.19 19.3914 15.65 18.1914 15.97 16.9414H18.92C17.9512 18.6097 16.4141 19.8734 14.59 20.5014ZM14.34 14.9414H9.66C9.56 14.2814 9.5 13.6214 9.5 12.9414C9.5 12.2614 9.56 11.5914 9.66 10.9414H14.34C14.43 11.5914 14.5 12.2614 14.5 12.9414C14.5 13.6214 14.43 14.2814 14.34 14.9414ZM12 20.9014C11.17 19.7014 10.5 18.3714 10.09 16.9414H13.91C13.5 18.3714 12.83 19.7014 12 20.9014ZM8 8.94141H5.08C6.03886 7.26862 7.5748 6.00289 9.4 5.38141C8.8 6.49141 8.35 7.69141 8 8.94141ZM5.08 16.9414H8C8.35 18.1914 8.8 19.3914 9.4 20.5014C7.57862 19.8731 6.04485 18.6091 5.08 16.9414ZM4.26 14.9414C4.1 14.3014 4 13.6314 4 12.9414C4 12.2514 4.1 11.5814 4.26 10.9414H7.64C7.56 11.6014 7.5 12.2614 7.5 12.9414C7.5 13.6214 7.56 14.2814 7.64 14.9414M12 4.97141C12.83 6.17141 13.5 7.51141 13.91 8.94141H10.09C10.5 7.51141 11.17 6.17141 12 4.97141ZM18.92 8.94141H15.97C15.657 7.70286 15.1936 6.5073 14.59 5.38141C16.43 6.01141 17.96 7.28141 18.92 8.94141ZM12 2.94141C6.47 2.94141 2 7.44141 2 12.9414C2 15.5936 3.05357 18.1371 4.92893 20.0125C5.85752 20.9411 6.95991 21.6777 8.17317 22.1802C9.38642 22.6827 10.6868 22.9414 12 22.9414C14.6522 22.9414 17.1957 21.8878 19.0711 20.0125C20.9464 18.1371 22 15.5936 22 12.9414C22 11.6282 21.7413 10.3278 21.2388 9.11457C20.7362 7.90132 19.9997 6.79892 19.0711 5.87034C18.1425 4.94175 17.0401 4.20516 15.8268 3.70261C14.6136 3.20006 13.3132 2.94141 12 2.94141Z" fill="white"/>
</g>
</svg>

<svg width="24" height="25" fill="none" xmlns="http://www.w3.org/2000/svg"><path d="M16.36 14.941c.08-.66.14-1.32.14-2 0-.68-.06-1.34-.14-2h3.38c.16.64.26 1.31.26 2s-.1 1.36-.26 2m-5.15 5.56c.6-1.11 1.06-2.31 1.38-3.56h2.95a8.03 8.03 0 0 1-4.33 3.56Zm-.25-5.56H9.66c-.1-.66-.16-1.32-.16-2 0-.68.06-1.35.16-2h4.68c.09.65.16 1.32.16 2 0 .68-.07 1.34-.16 2ZM12 20.901c-.83-1.2-1.5-2.53-1.91-3.96h3.82c-.41 1.43-1.08 2.76-1.91 3.96ZM8 8.941H5.08a7.923 7.923 0 0 1 4.32-3.56c-.6 1.11-1.05 2.31-1.4 3.56Zm-2.92 8H8c.35 1.25.8 2.45 1.4 3.56a8.008 8.008 0 0 1-4.32-3.56Zm-.82-2c-.16-.64-.26-1.31-.26-2s.1-1.36.26-2h3.38c-.08.66-.14 1.32-.14 2 0 .68.06 1.34.14 2M12 4.971c.83 1.2 1.5 2.54 1.91 3.97h-3.82c.41-1.43 1.08-2.77 1.91-3.97Zm6.92 3.97h-2.95a15.65 15.65 0 0 0-1.38-3.56c1.84.63 3.37 1.9 4.33 3.56Zm-6.92-6c-5.53 0-10 4.5-10 10a10 10 0 1 0 10-10Z" fill="#fff"/></svg>
